X:1
T:Theme from "Swan Lake"
C:Piotr Ilyich Tchaikovsky
O:Russia
Z:Transcribed by Frank Nordberg - http://www.musicaviva.com
F:http://abc.musicaviva.com/tunes/tchaikovsky-piotr-ilyich/tchaikovsky-swan-lake.abc
V:1 Program 1 73 %Flute
M:C
L:1/8
Q:1/4=80
K:Em
"_p dolce"B4 "_cresc."(EFGA)|(B3GB3)G|(B3E) (GECG)|"_dim."E4 z (AGF)|
B4 "_cresc."(EFGA)|(B3GB3)G|(B3E) (GECG)|"_dim."E6E2|
"_cresc."(F2G2A2)(Bc)|(d3cB2)(cd)|(e3d"_cresc."c2)(de)|"_f dim."(f3eB4)|
"_mp"(F2"_cresc."G2A2)(Bc)|(d3cB2)(cd)|(e3d"_cresc."c2)(de)|
"_f"(=f3cA2)(cf)|"_poco rit."(^f3^c)"_dim."(f3B)|
"_a tempo"B4 "_cresc."(EFGA)|(B3GB3)G|(B3E) (GECG)|"_dim."E4 z (AGF)|
B4 "_cresc."(EFGA)|(B3GB3)G|(B3E) (GECG)|"_dim."E4 z "_cresc."(AGF)|
(B3E) (GECG)|"_dm."E4 z (AGF)|"_p"E4 z AGF|"_pp"E2 z2 E2E2|E2 z2 E4|]


